X:13
T:Cacharpaya de Yotala
R:waynu
O:Bolivia
Z:id:hn-waynu-13
M:2/4
L:1/8
Q:1/4=90
K:Em
[M:4/4] bb bb/aaa/ b>b |[M:3/4] aa aa/gef/ |[M:2/4] a3/ge/g/e/ |
BB/AA/G/F/ | E/E/G/E/ G/E/G/E/ :||: EE/DEF/ | GA B>e |
d/d/B/d/ e>d | BB/AA/G/F/ | E/E/G/E/ G/E/G/E/ :|

